; generated by PrusaSlicer 2.6.0+MacOS-arm64 on 2023-08-09 at 11:28:26 UTC


;
;
; 

; external perimeters extrusion width = 0.45mm
; perimeters extrusion width = 0.45mm
; infill extrusion width = 0.45mm
; solid infill extrusion width = 0.45mm
; top infill extrusion width = 0.40mm
; first layer extrusion width = 0.42mm

; external perimeters extrusion width = 0.45mm
; perimeters extrusion width = 0.45mm
; infill extrusion width = 0.45mm
; solid infill extrusion width = 0.45mm
; top infill extrusion width = 0.40mm
; first layer extrusion width = 0.42mm

M73 P0 R86
M73 Q0 S87
M201 X1000 Y1000 Z200 E5000 ; sets maximum accelerations, mm/sec^2
M203 X200 Y200 Z12 E120 ; sets maximum feedrates, mm / sec
M204 S1250 T1250 ; sets acceleration (S) and retract acceleration (R), mm/sec^2
M205 X8.00 Y8.00 Z0.40 E4.50 ; sets the jerk limits, mm/sec
M205 S0 T0 ; sets the minimum extruding and travel feed rate, mm/sec
;TYPE:Custom
M862.3 P "MK3S" ; printer model check
M862.1 P0.4 ; nozzle diameter check
M115 U3.12.2 ; tell printer latest fw version
G90 ; use absolute coordinates
M83 ; extruder relative mode
M104 S215 ; set extruder temp
M140 S60 ; set bed temp
M190 S60 ; wait for bed temp
M109 S215 ; wait for extruder temp
G28 W ; home all without mesh bed level
G80 ; mesh bed leveling

G1 Z0.2 F720
G1 Y-3 F1000 ; go outside print area
G92 E0
G1 X60 E9 F1000 ; intro line
G1 X100 E12.5 F1000 ; intro line

G92 E0
M221 S95

; Don't change E values below. Excessive value can damage the printer.
M907 E430 ; set extruder motor current
G21 ; set units to millimeters
G90 ; use absolute coordinates
M83 ; use relative distances for extrusion
M900 K0.05 ; Filament gcode LA 1.5
M900 K30 ; Filament gcode LA 1.0
M107
;LAYER_CHANGE
;Z:0.2
;HEIGHT:0.2
;BEFORE_LAYER_CHANGE
G92 E0.0
;0.2


G1 E-.8 F2100
G1 Z.4 F720
;AFTER_LAYER_CHANGE
;0.2
G1 X39.746 Y39.333 F10800
G1 Z.2 F720
G1 E.8 F2100
M204 S800
;TYPE:Skirt/Brim
;WIDTH:0.42
G1 F1200
G1 X40.812 Y38.319 E.04613
G1 X42.107 Y37.996 E.04185
G1 X207.893 Y37.996 E5.1981
G1 X209.31 Y38.389 E.04611
G1 X210.323 Y39.455 E.04611
G1 X210.647 Y40.75 E.04186
G1 X210.647 Y94.74 E1.69282
G1 X210.499 Y95.631 E.02832
M73 Q0 S86
G1 X185.046 Y170.14 E2.46873
G1 X184.217 Y171.355 E.04612
G1 X182.44 Y172.004 E.05932
G1 X59.419 Y171.987 E3.85724
G1 X58.467 Y171.811 E.03036
G1 X57.94 Y171.62 E.01758
G1 X41.918 Y164.674 E.54754
G1 X41.244 Y164.288 E.02435
G1 X40.762 Y163.904 E.01932
G1 X40.124 Y163.168 E.03054
G1 X39.548 Y161.971 E.04165
G1 X39.353 Y160.706 E.04013
G1 X39.353 Y40.75 E3.76114
G1 X39.73 Y39.39 E.04425
M204 S1000
G1 X40.104 Y39.502 F10800
M204 S800
G1 F1200
G1 X40.122 Y39.443 E.00193
G1 X41.168 Y38.567 E.04278
G1 X42.107 Y38.373 E.03006
G1 X207.893 Y38.373 E5.1981
G1 X209.2 Y38.764 E.04277
G1 X210.076 Y39.81 E.04278
G1 X210.27 Y40.75 E.03009
G1 X210.27 Y94.74 E1.69282
G1 X210.142 Y95.509 E.02444
G1 X184.69 Y170.018 E2.46872
G1 X183.896 Y171.129 E.04282
G1 X182.44 Y171.627 E.04825
G1 X59.461 Y171.612 E3.85592
G1 X58.591 Y171.455 E.02772
M73 P1 R85
M73 Q1 S86
G1 X58.09 Y171.274 E.0167
G1 X42.068 Y164.328 E.54754
G1 X41.029 Y163.637 E.03912
G1 X40.444 Y162.968 E.02786
G1 X39.904 Y161.847 E.03901
G1 X39.73 Y160.706 E.03619
G1 X39.73 Y40.75 E3.76114
G1 X40.087 Y39.56 E.03895
M204 S1000
; printing object DFAM Kick Bass Snare Left.stl id:0 copy 0
;WIPE_START
G1 F8640
G1 X40.122 Y39.443 E-.0282
G1 X41.168 Y38.567 E-.31504
G1 X42.107 Y38.373 E-.2214
G1 X43.126 Y38.373 E-.23536
;WIPE_END
G1 Z.6 F720
G1 X43.197 Y144.88 F10800
G1 Z.2 F720
G1 E.8 F2100
M204 S800
;TYPE:Perimeter
;WIDTH:0.419999
G1 F1200
G1 X43.339 Y144.852 E.00454
G1 X43.491 Y144.762 E.00554
G1 X43.641 Y144.568 E.00769
G1 X43.694 Y144.327 E.00774
G1 X43.694 Y141.284 E.09541
G1 X43.635 Y141.031 E.00815
G1 X43.459 Y140.825 E.0085
G1 X43.129 Y140.719 E.01087
G1 X42.694 Y140.719 E.01364
G1 X42.694 Y41.337 E3.11605
G1 X49.896 Y41.337 E.22581
G1 X49.896 Y43.75 E.07566
G1 X49.995 Y44.696 E.02982
G1 X50.262 Y45.554 E.02817
G1 X50.693 Y46.344 E.02822
G1 X51.272 Y47.035 E.02827
G1 X51.98 Y47.597 E.02834
G1 X52.79 Y48.003 E.02841
G1 X53.667 Y48.231 E.02841
G1 X54.551 Y48.275 E.02775
G1 X55.436 Y48.165 E.02796
G1 X56.303 Y47.884 E.02858
G1 X57.096 Y47.415 E.02889
G1 X57.671 Y46.875 E.02473
G1 X57.962 Y46.458 E.01594
G1 X58.244 Y45.999 E.01689
G1 X58.548 Y45.146 E.02839
G1 X58.669 Y44.303 E.0267
G1 X58.708 Y43.108 E.03749
G1 X58.716 Y41.337 E.05553
G1 X151.496 Y41.337 E2.90905
G1 X151.496 Y43.75 E.07566
M73 Q1 S85
G1 X151.595 Y44.696 E.02982
G1 X151.821 Y45.451 E.02471
G1 X152.293 Y46.344 E.03167
G1 X152.792 Y46.955 E.02473
G1 X153 Y47.139 E.00871
G1 X153.656 Y47.636 E.0258
G1 X154.391 Y48.003 E.02576
G1 X155.267 Y48.231 E.02838
G1 X155.884 Y48.268 E.01938
G1 X156.358 Y48.251 E.01487
G1 X157.036 Y48.165 E.02143
G1 X157.903 Y47.884 E.02858
G1 X158.697 Y47.415 E.02891
G1 X159.357 Y46.772 E.02889
G1 X159.844 Y45.999 E.02865
G1 X160.148 Y45.146 E.02839
G1 X160.269 Y44.303 E.0267
G1 X160.308 Y43.108 E.03749
G1 X160.316 Y41.337 E.05553
G1 X207.306 Y41.337 E1.47334
G1 X207.306 Y94.153 E1.65601
G1 X182.311 Y94.164 E.7837
G1 X182.067 Y94.276 E.00842
G1 X181.917 Y94.457 E.00737
G1 X181.853 Y94.719 E.00846
G1 X181.853 Y168.663 E2.31846
G1 X160.316 Y168.663 E.67528
G1 X160.308 Y166.892 E.05553
G1 X160.263 Y165.633 E.0395
G1 X160.119 Y164.74 E.02836
G1 X159.844 Y164.001 E.02472
G1 X159.592 Y163.589 E.01514
G1 X159.242 Y163.099 E.01888
G1 X158.588 Y162.505 E.0277
G1 X157.79 Y162.067 E.02854
G1 X156.934 Y161.814 E.02799
G1 X156.054 Y161.722 E.02774
G1 X155.267 Y161.769 E.02472
G1 X154.28 Y162.04 E.03209
G1 X153.58 Y162.403 E.02472
G1 X153.371 Y162.559 E.00818
G1 X152.792 Y163.045 E.0237
G1 X152.293 Y163.656 E.02473
G1 X151.821 Y164.549 E.03167
G1 X151.574 Y165.412 E.02815
G1 X151.496 Y166.25 E.02639
G1 X151.496 Y168.663 E.07566
G1 X67.718 Y168.663 E2.6268
G1 X67.718 Y168.229 E.01361
G1 X67.64 Y167.942 E.00933
G1 X67.419 Y167.73 E.0096
G1 X67.153 Y167.663 E.0086
G1 X64.027 Y167.669 E.09801
G1 X63.784 Y167.766 E.0082
G1 X63.62 Y167.945 E.00761
G1 X63.544 Y168.229 E.00922
G1 X63.544 Y168.663 E.01361
G1 X59.697 Y168.656 E.12062
G1 X59.29 Y168.56 E.01311
G1 X58.935 Y168.275 E.01427
G1 X58.785 Y167.998 E.00988
G1 X58.712 Y167.618 E.01213
G1 X58.641 Y165.459 E.06773
G1 X58.571 Y164.878 E.01835
G1 X58.383 Y164.117 E.02458
G1 X58.1 Y163.482 E.0218
G1 X57.597 Y162.816 E.02617
G1 X57.068 Y162.386 E.02137
G1 X56.802 Y162.241 E.0095
G1 X56.234 Y162.007 E.01926
G1 X55.748 Y161.886 E.0157
G1 X55.131 Y161.819 E.01946
G1 X52.88 Y161.746 E.07062
G1 X43.802 Y161.719 E.28464
G1 X43.483 Y161.69 E.01004
G1 X43.174 Y161.555 E.01057
G1 X42.918 Y161.335 E.01058
G1 X42.761 Y161.037 E.01056
G1 X42.694 Y160.673 E.0116
G1 X42.694 Y156.893 E.11852
G1 X43.129 Y156.893 E.01364
G1 X43.41 Y156.818 E.00912
G1 X43.533 Y156.722 E.00489
G1 X43.654 Y156.537 E.00693
G1 X43.694 Y156.331 E.00658
G1 X43.687 Y153.195 E.09833
G1 X43.601 Y152.972 E.00749
G1 X43.339 Y152.759 E.01059
G1 X43.129 Y152.719 E.0067
G1 X42.694 Y152.719 E.01364
G1 X42.694 Y150.893 E.05725
G1 X43.129 Y150.893 E.01364
G1 X43.339 Y150.852 E.00671
G1 X43.52 Y150.736 E.00674
G1 X43.638 Y150.573 E.00631
G1 X43.694 Y150.327 E.00791
G1 X43.694 Y147.697 E.08246
G1 X43.673 Y147.128 E.01785
G1 X43.572 Y146.933 E.00689
G1 X43.339 Y146.759 E.00912
G1 X43.129 Y146.719 E.0067
G1 X42.694 Y146.719 E.01364
G1 X42.694 Y144.893 E.05725
G1 X43.138 Y144.891 E.01392
M204 S1000
G1 X43.129 Y144.516 F10800
M204 S800
;TYPE:External perimeter
G1 F1200
G1 X43.249 Y144.472 E.00401
G1 X43.317 Y144.327 E.00502
G1 X43.317 Y141.411 E.09143
G1 X43.281 Y141.173 E.00755
G1 X43.129 Y141.096 E.00534
G1 X42.317 Y141.096 E.02546
G1 X42.317 Y40.96 E3.13969
G1 X50.273 Y40.96 E.24945
G1 X50.273 Y43.75 E.08748
G1 X50.356 Y44.588 E.0264
G1 X50.596 Y45.378 E.02589
G1 X50.985 Y46.106 E.02588
G1 X51.511 Y46.743 E.0259
G1 X52.154 Y47.262 E.02591
G1 X52.89 Y47.64 E.02594
G1 X53.689 Y47.855 E.02594
G1 X54.508 Y47.9 E.02572
G1 X55.325 Y47.804 E.02579
G1 X56.116 Y47.556 E.02599
G1 X56.846 Y47.133 E.02645
G1 X57.441 Y46.566 E.02577
G1 X57.891 Y45.868 E.02604
G1 X58.175 Y45.091 E.02594
G1 X58.292 Y44.29 E.02538
G1 X58.331 Y43.107 E.03711
G1 X58.34 Y40.96 E.06732
G1 X151.873 Y40.96 E2.93266
G1 X151.873 Y43.75 E.08748
M73 P2 R85
M73 Q2 S85
G1 X151.957 Y44.588 E.02641
G1 X152.196 Y45.378 E.02588
G1 X152.585 Y46.106 E.02588
G1 X153.084 Y46.716 E.02471
G1 X153.829 Y47.301 E.0297
G1 X154.49 Y47.64 E.02329
G1 X155.289 Y47.855 E.02594
G1 X155.906 Y47.891 E.01938
G1 X156.315 Y47.877 E.01283
G1 X156.925 Y47.804 E.01926
G1 X157.717 Y47.556 E.02602
G1 X158.438 Y47.14 E.0261
G1 X159.041 Y46.566 E.0261
G1 X159.491 Y45.868 E.02604
G1 X159.775 Y45.091 E.02594
G1 X159.892 Y44.29 E.02538
G1 X159.931 Y43.107 E.03711
G1 X159.94 Y40.96 E.06732
G1 X207.683 Y40.96 E1.49695
G1 X207.683 Y94.53 E1.67965
G1 X182.419 Y94.53 E.79213
G1 X182.301 Y94.571 E.00392
G1 X182.23 Y94.719 E.00515
G1 X182.23 Y169.04 E2.33028
G1 X159.94 Y169.04 E.69889
M73 P2 R84
G1 X159.931 Y166.893 E.06732
G1 X159.89 Y165.689 E.03777
G1 X159.765 Y164.871 E.02595
G1 X159.491 Y164.132 E.02471
G1 X158.984 Y163.373 E.02862
G1 X158.402 Y162.833 E.02489
G1 X157.679 Y162.427 E.026
G1 X156.891 Y162.189 E.02581
G1 X156.031 Y162.102 E.0271
G1 X155.146 Y162.18 E.02786
G1 X154.454 Y162.375 E.02254
G1 X153.754 Y162.738 E.02472
G1 X153.086 Y163.282 E.02701
G1 X152.585 Y163.894 E.0248
G1 X152.182 Y164.656 E.02703
G1 X151.95 Y165.448 E.02588
G1 X151.873 Y166.25 E.02526
G1 X151.873 Y169.04 E.08748
G1 X67.341 Y169.04 E2.65044
G1 X67.341 Y168.229 E.02543
G1 X67.283 Y168.092 E.00466
G1 X67.153 Y168.04 E.00439
G1 X64.11 Y168.04 E.09541
G1 X64.001 Y168.074 E.00358
G1 X63.921 Y168.229 E.00547
G1 X63.921 Y169.04 E.02543
G1 X59.841 Y169.04 E.12793
G1 X59.419 Y169.004 E.01328
G1 X59.009 Y168.829 E.01398
G1 X58.643 Y168.518 E.01506
G1 X58.43 Y168.124 E.01404
G1 X58.336 Y167.647 E.01524
G1 X58.266 Y165.501 E.06732
G1 X58.203 Y164.96 E.01708
G1 X58.035 Y164.263 E.02248
G1 X57.796 Y163.706 E.019
G1 X57.495 Y163.286 E.0162
G1 X57.255 Y163.024 E.01114
G1 X56.793 Y162.656 E.01852
G1 X56.265 Y162.404 E.01834
G1 X55.706 Y162.261 E.01809
G1 X55.118 Y162.196 E.01855
G1 X52.879 Y162.123 E.07024
G1 X43.801 Y162.096 E.28464
G1 X43.398 Y162.059 E.01269
G1 X42.973 Y161.874 E.01453
G1 X42.622 Y161.571 E.01454
G1 X42.405 Y161.161 E.01454
G1 X42.317 Y160.694 E.0149
G1 X42.317 Y156.516 E.131
G1 X43.129 Y156.516 E.02546
G1 X43.264 Y156.459 E.00459
G1 X43.317 Y156.328 E.00443
G1 X43.317 Y153.284 E.09544
G1 X43.259 Y153.148 E.00464
G1 X43.129 Y153.096 E.00439
G1 X42.317 Y153.096 E.02546
G1 X42.317 Y150.516 E.08089
G1 X43.129 Y150.516 E.02546
G1 X43.259 Y150.463 E.0044
G1 X43.317 Y150.327 E.00464
G1 X43.317 Y147.284 E.09541
G1 X43.277 Y147.167 E.00388
G1 X43.129 Y147.096 E.00515
G1 X42.317 Y147.096 E.02546
G1 X42.317 Y144.516 E.08089
G1 X43.069 Y144.516 E.02358
M204 S1000
G1 X43.247 Y144.565 F10800
;WIPE_START
G1 F8640
G1 X43.249 Y144.472 E-.04279
G1 X43.317 Y144.327 E-.03698
G1 X43.317 Y141.411 E-.67331
G1 X43.287 Y141.21 E-.04692
;WIPE_END
G1 Z.6 F720
G1 X194.814 Y56.814 F10800
G1 Z.2 F720
G1 E.8 F2100
M204 S800
;TYPE:Perimeter
G1 F1200
G1 X195.641 Y57.21 E.02875
G1 X196.249 Y57.665 E.02381
G1 X196.837 Y58.306 E.02727
G1 X197.288 Y59.051 E.02731
G1 X197.584 Y59.87 E.0273
G1 X197.713 Y60.731 E.0273
G1 X197.67 Y61.6 E.02728
G1 X197.457 Y62.444 E.02729
G1 X197.083 Y63.23 E.02729
G1 X196.597 Y63.879 E.02542
G1 X196.051 Y64.386 E.02336
G1 X195.821 Y64.572 E.00927
G1 X195.162 Y64.949 E.0238
G1 X194.619 Y65.142 E.01807
G1 X194.215 Y65.261 E.01321
G1 X193.476 Y65.353 E.02335
G1 X192.608 Y65.3 E.02727
G1 X191.767 Y65.076 E.02729
G1 X190.986 Y64.692 E.02729
G1 X190.295 Y64.161 E.02732
G1 X189.723 Y63.506 E.02727
G1 X189.29 Y62.75 E.02732
G1 X188.992 Y61.815 E.03077
G1 X188.907 Y61.06 E.02382
G1 X188.992 Y60.082 E.03078
G1 X189.205 Y59.354 E.02378
G1 X189.561 Y58.65 E.02474
G1 X190.138 Y57.894 E.02982
G1 X190.801 Y57.329 E.02731
G1 X191.562 Y56.906 E.0273
G1 X192.391 Y56.641 E.02729
G1 X193.084 Y56.549 E.02192
G1 X193.91 Y56.584 E.02592
G1 X194.759 Y56.789 E.02738
M204 S1000
G1 X194.68 Y57.16 F10800
M204 S800
;TYPE:External perimeter
G1 F1200
G1 X195.285 Y57.445 E.02097
G1 X196.022 Y57.967 E.02832
G1 X196.556 Y58.558 E.02497
G1 X196.963 Y59.242 E.02496
G1 X197.228 Y59.993 E.02497
G1 X197.339 Y60.782 E.02498
G1 X197.294 Y61.577 E.02497
G1 X197.093 Y62.347 E.02495
G1 X196.744 Y63.063 E.02497
G1 X196.299 Y63.649 E.02307
G1 X195.634 Y64.245 E.028
G1 X194.975 Y64.622 E.0238
G1 X194.168 Y64.887 E.02663
G1 X193.43 Y64.979 E.02332
G1 X192.636 Y64.924 E.02495
G1 X191.868 Y64.713 E.02497
G1 X191.156 Y64.356 E.02497
G1 X190.529 Y63.865 E.02497
G1 X190.01 Y63.261 E.02497
G1 X189.62 Y62.567 E.02496
G1 X189.366 Y61.773 E.02614
G1 X189.282 Y61.018 E.02382
G1 X189.354 Y60.188 E.02612
G1 X189.567 Y59.459 E.02381
G1 X189.895 Y58.825 E.02238
G1 X190.431 Y58.131 E.02749
G1 X191.042 Y57.62 E.02497
G1 X191.741 Y57.238 E.02498
G1 X192.502 Y57.002 E.02498
G1 X193.129 Y56.924 E.01981
G1 X193.89 Y56.961 E.02389
G1 X194.623 Y57.142 E.02367
M204 S1000
G1 X194.985 Y56.902 F10800
;WIPE_START
G1 F8640
G1 X195.285 Y57.445 E-.16811
G1 X196.022 Y57.967 E-.20854
G1 X196.556 Y58.558 E-.18392
G1 X196.963 Y59.242 E-.18378
G1 X197.043 Y59.469 E-.05565
;WIPE_END
G1 Z.6 F720
G1 X190.929 Y76.552 F10800
G1 Z.2 F720
G1 E.8 F2100
M204 S800
;TYPE:Perimeter
G1 F1200
G1 X190.29 Y76.061 E.02527
G1 X189.718 Y75.406 E.02727
G1 X189.286 Y74.65 E.0273
G1 X188.987 Y73.715 E.03078
G1 X188.902 Y72.96 E.02382
G1 X188.987 Y71.982 E.03078
G1 X189.2 Y71.254 E.02378
G1 X189.594 Y70.477 E.02732
G1 X190.133 Y69.794 E.02728
G1 X190.796 Y69.229 E.02731
G1 X191.557 Y68.806 E.0273
G1 X192.387 Y68.541 E.02732
G1 X193.079 Y68.449 E.02189
G1 X194.03 Y68.505 E.02987
G1 X194.75 Y68.687 E.02329
G1 X195.636 Y69.11 E.03078
G1 X196.244 Y69.565 E.02381
G1 X196.792 Y70.161 E.02539
G1 X197.283 Y70.951 E.02916
G1 X197.579 Y71.77 E.0273
G1 X197.708 Y72.631 E.0273
G1 X197.665 Y73.5 E.02728
G1 X197.452 Y74.344 E.02729
G1 X197.078 Y75.13 E.02729
G1 X196.597 Y75.773 E.02518
G1 X196.051 Y76.282 E.0234
G1 X195.816 Y76.472 E.00948
G1 X195.157 Y76.849 E.0238
G1 X194.215 Y77.161 E.03111
G1 X193.471 Y77.253 E.02351
G1 X192.603 Y77.2 E.02727
G1 X191.762 Y76.976 E.02729
G1 X190.977 Y76.589 E.02744
M204 S1000
G1 X191.151 Y76.256 F10800
M204 S800
;TYPE:External perimeter
G1 F1200
G1 X190.524 Y75.765 E.02497
G1 X190.005 Y75.161 E.02497
G1 X189.615 Y74.467 E.02496
G1 X189.362 Y73.673 E.02613
G1 X189.277 Y72.918 E.02382
G1 X189.349 Y72.088 E.02612
G1 X189.562 Y71.359 E.02381
G1 X189.929 Y70.652 E.02498
G1 X190.427 Y70.031 E.02496
G1 X191.037 Y69.52 E.02495
G1 X191.736 Y69.138 E.02498
G1 X192.497 Y68.902 E.02498
G1 X193.124 Y68.824 E.01981
G1 X193.885 Y68.861 E.02389
G1 X194.693 Y69.065 E.02613
G1 X195.378 Y69.392 E.0238
G1 X196.045 Y69.892 E.02614
G1 X196.551 Y70.458 E.0238
G1 X196.958 Y71.142 E.02496
G1 X197.223 Y71.893 E.02497
M73 Q2 S84
G1 X197.334 Y72.682 E.02498
G1 X197.289 Y73.477 E.02497
G1 X197.088 Y74.248 E.02498
G1 X196.739 Y74.964 E.02497
G1 X196.298 Y75.543 E.02282
G1 X195.629 Y76.145 E.02822
G1 X194.97 Y76.522 E.0238
G1 X194.215 Y76.777 E.02499
G1 X193.426 Y76.879 E.02494
G1 X192.631 Y76.824 E.02499
G1 X191.863 Y76.613 E.02497
G1 X191.205 Y76.283 E.02308
M204 S1000
G1 X190.797 Y76.441 F10800
;WIPE_START
G1 F8640
G1 X190.524 Y75.765 E-.19756
G1 X190.005 Y75.161 E-.18388
G1 X189.615 Y74.467 E-.18382
G1 X189.362 Y73.673 E-.19242
G1 X189.341 Y73.491 E-.04232
;WIPE_END
G1 Z.6 F720
G1 X191.619 Y80.685 F10800
G1 Z.2 F720
G1 E.8 F2100
M204 S800
;TYPE:Perimeter
G1 F1200
G1 X192.387 Y80.439 E.02529
G1 X193.079 Y80.347 E.02189
G1 X194.025 Y80.402 E.02971
G1 X194.75 Y80.585 E.02344
G1 X195.636 Y81.008 E.03078
G1 X196.244 Y81.463 E.02381
G1 X196.787 Y82.054 E.02516
G1 X197.283 Y82.849 E.02938
G1 X197.579 Y83.668 E.0273
G1 X197.708 Y84.529 E.0273
G1 X197.665 Y85.398 E.02728
G1 X197.452 Y86.242 E.02729
G1 X197.078 Y87.028 E.02729
G1 X196.556 Y87.725 E.0273
G1 X195.907 Y88.306 E.02731
G1 X195.157 Y88.747 E.02728
G1 X194.335 Y89.033 E.02729
G1 X193.472 Y89.151 E.02731
G1 X192.603 Y89.098 E.0273
