; generated by PrusaSlicer 2.6.0+MacOS-arm64 on 2023-08-09 at 11:25:17 UTC


;
;
; 

; external perimeters extrusion width = 0.45mm
; perimeters extrusion width = 0.45mm
; infill extrusion width = 0.45mm
; solid infill extrusion width = 0.45mm
; top infill extrusion width = 0.40mm
; first layer extrusion width = 0.42mm

; external perimeters extrusion width = 0.45mm
; perimeters extrusion width = 0.45mm
; infill extrusion width = 0.45mm
; solid infill extrusion width = 0.45mm
; top infill extrusion width = 0.40mm
; first layer extrusion width = 0.42mm

M73 P0 R88
M73 C83
M73 Q0 S89
M73 D83
M201 X1000 Y1000 Z200 E5000 ; sets maximum accelerations, mm/sec^2
M203 X200 Y200 Z12 E120 ; sets maximum feedrates, mm / sec
M204 S1250 T1250 ; sets acceleration (S) and retract acceleration (R), mm/sec^2
M205 X8.00 Y8.00 Z0.40 E4.50 ; sets the jerk limits, mm/sec
M205 S0 T0 ; sets the minimum extruding and travel feed rate, mm/sec
;TYPE:Custom
M862.3 P "MK3S" ; printer model check
M862.1 P0.4 ; nozzle diameter check
M115 U3.12.2 ; tell printer latest fw version
G90 ; use absolute coordinates
M83 ; extruder relative mode
M104 S215 ; set extruder temp
M140 S60 ; set bed temp
M190 S60 ; wait for bed temp
M109 S215 ; wait for extruder temp
G28 W ; home all without mesh bed level
G80 ; mesh bed leveling

G1 Z0.2 F720
G1 Y-3 F1000 ; go outside print area
G92 E0
G1 X60 E9 F1000 ; intro line
G1 X100 E12.5 F1000 ; intro line

G92 E0
M221 S95

; Don't change E values below. Excessive value can damage the printer.
M907 E430 ; set extruder motor current
G21 ; set units to millimeters
G90 ; use absolute coordinates
M83 ; use relative distances for extrusion
M900 K0.05 ; Filament gcode LA 1.5
M900 K30 ; Filament gcode LA 1.0
M107
;LAYER_CHANGE
;Z:0.2
;HEIGHT:0.2
;BEFORE_LAYER_CHANGE
G92 E0.0
;0.2


G1 E-.8 F2100
G1 Z.4 F720
;AFTER_LAYER_CHANGE
;0.2
G1 X66.028 Y39.576 F10800
G1 Z.2 F720
G1 E.8 F2100
M204 S800
;TYPE:Skirt/Brim
;WIDTH:0.42
G1 F1200
G1 X66.987 Y38.461 E.04611
G1 X68.519 Y37.996 E.0502
G1 X206.934 Y37.996 E4.33991
G1 X208.351 Y38.389 E.04611
G1 X209.364 Y39.455 E.04611
G1 X209.688 Y40.75 E.04186
G1 X209.688 Y169.25 E4.02903
G1 X209.295 Y170.667 E.04611
M73 Q0 S88
G1 X208.229 Y171.681 E.04613
G1 X206.934 Y172.004 E.04185
G1 X60.685 Y172.004 E4.58553
G1 X60.024 Y171.947 E.0208
G1 X58.899 Y171.62 E.03673
G1 X42.877 Y164.674 E.54754
G1 X42.203 Y164.288 E.02435
G1 X41.721 Y163.904 E.01932
G1 X41.083 Y163.168 E.03054
G1 X40.507 Y161.971 E.04165
G1 X40.312 Y160.706 E.04013
G1 X40.312 Y94.74 E2.06832
G1 X40.575 Y93.566 E.03772
G1 X66.002 Y39.63 E1.86963
M204 S1000
G1 X66.343 Y39.791 F10800
M204 S800
G1 F1200
G1 X66.369 Y39.736 E.00191
G1 X67.28 Y38.721 E.04276
G1 X68.519 Y38.373 E.04035
G1 X206.934 Y38.373 E4.33991
G1 X208.241 Y38.764 E.04277
M73 C82
G1 X209.117 Y39.81 E.04278
G1 X209.311 Y40.75 E.03009
G1 X209.311 Y169.25 E4.02903
G1 X208.919 Y170.557 E.04278
G1 X207.873 Y171.433 E.04278
G1 X206.934 Y171.627 E.03006
G1 X60.685 Y171.627 E4.58553
G1 X60.066 Y171.573 E.01948
M73 P1 R88
M73 Q1 S88
M73 D82
G1 X59.049 Y171.274 E.03324
G1 X43.027 Y164.328 E.54754
G1 X41.988 Y163.637 E.03912
G1 X41.403 Y162.968 E.02786
G1 X40.863 Y161.847 E.03901
G1 X40.689 Y160.706 E.03619
G1 X40.689 Y94.74 E2.06832
G1 X40.916 Y93.727 E.03255
M73 P1 R87
G1 X66.318 Y39.845 E1.86776
M204 S1000
; printing object DFAM Tubular Bells Right.stl id:0 copy 0
;WIPE_START
G1 F8640
G1 X66.369 Y39.736 E-.02779
G1 X67.28 Y38.721 E-.31492
G1 X68.519 Y38.373 E-.29716
G1 X69.212 Y38.373 E-.16013
;WIPE_END
G1 Z.6 F720
G1 X68.649 Y168.135 F10800
G1 Z.2 F720
G1 E.8 F2100
M204 S800
;TYPE:Perimeter
;WIDTH:0.419999
G1 F1200
G1 X68.583 Y167.916 E.00717
G1 X68.382 Y167.732 E.00854
G1 X68.113 Y167.663 E.00871
G1 X64.986 Y167.669 E.09804
G1 X64.743 Y167.766 E.0082
G1 X64.579 Y167.945 E.00761
G1 X64.503 Y168.229 E.00922
G1 X64.503 Y168.663 E.01361
G1 X60.8 Y168.663 E.1161
G1 X60.462 Y168.634 E.01064
G1 X60.154 Y168.501 E.01052
G1 X59.899 Y168.283 E.01052
G1 X59.741 Y167.987 E.01052
G1 X59.671 Y167.618 E.01178
G1 X59.6 Y165.459 E.06773
G1 X59.53 Y164.878 E.01835
G1 X59.361 Y164.164 E.02301
G1 X59.064 Y163.489 E.02312
G1 X58.743 Y163.023 E.01774
G1 X58.255 Y162.548 E.02135
G1 X57.842 Y162.279 E.01545
G1 X57.519 Y162.129 E.01117
G1 X56.911 Y161.926 E.0201
G1 X55.687 Y161.795 E.0386
G1 X53.843 Y161.746 E.05784
G1 X44.761 Y161.719 E.28476
G1 X44.442 Y161.69 E.01004
G1 X44.133 Y161.555 E.01057
G1 X43.877 Y161.335 E.01058
G1 X43.72 Y161.037 E.01056
G1 X43.653 Y160.673 E.0116
G1 X43.653 Y156.893 E.11852
G1 X44.088 Y156.893 E.01364
G1 X44.369 Y156.818 E.00912
G1 X44.573 Y156.619 E.00894
G1 X44.653 Y156.327 E.00949
G1 X44.653 Y153.908 E.07585
G1 X44.646 Y153.193 E.02242
G1 X44.552 Y152.961 E.00785
G1 X44.298 Y152.759 E.01018
G1 X44.088 Y152.719 E.0067
G1 X43.653 Y152.719 E.01364
G1 X43.653 Y150.893 E.05725
G1 X44.088 Y150.893 E.01364
G1 X44.298 Y150.852 E.00671
G1 X44.47 Y150.744 E.00637
G1 X44.591 Y150.585 E.00626
G1 X44.653 Y150.327 E.00832
G1 X44.653 Y148.125 E.06904
G1 X44.639 Y147.159 E.03029
G1 X44.559 Y146.971 E.00641
G1 X44.298 Y146.759 E.01054
G1 X44.088 Y146.719 E.0067
G1 X43.653 Y146.719 E.01364
G1 X43.653 Y144.893 E.05725
G1 X44.088 Y144.893 E.01364
G1 X44.298 Y144.852 E.00671
G1 X44.478 Y144.737 E.0067
G1 X44.613 Y144.538 E.00754
G1 X44.653 Y144.327 E.00673
G1 X44.653 Y141.867 E.07713
G1 X44.65 Y141.223 E.02019
G1 X44.544 Y140.949 E.00921
G1 X44.298 Y140.759 E.00975
G1 X44.088 Y140.719 E.0067
G1 X43.653 Y140.719 E.01364
G1 X43.653 Y138.893 E.05725
G1 X44.088 Y138.893 E.01364
G1 X44.298 Y138.852 E.00671
G1 X44.462 Y138.751 E.00604
G1 X44.585 Y138.597 E.00618
G1 X44.653 Y138.327 E.00873
G1 X44.652 Y135.25 E.09648
G1 X44.56 Y134.972 E.00918
G1 X44.298 Y134.759 E.01059
G1 X44.088 Y134.719 E.0067
G1 X43.653 Y134.719 E.01364
G1 X43.653 Y132.893 E.05725
G1 X44.088 Y132.893 E.01364
G1 X44.298 Y132.852 E.00671
G1 X44.479 Y132.736 E.00674
G1 X44.597 Y132.573 E.00631
G1 X44.653 Y132.327 E.00791
G1 X44.653 Y129.284 E.09541
G1 X44.591 Y129.026 E.00832
G1 X44.388 Y128.805 E.00941
G1 X44.088 Y128.719 E.00979
G1 X43.653 Y128.719 E.01364
G1 X43.653 Y95.327 E1.04698
G1 X68.622 Y95.322 E.78288
G1 X68.87 Y95.221 E.0084
G1 X69.037 Y95.033 E.00788
G1 X69.106 Y94.762 E.00877
G1 X69.106 Y41.337 E1.6751
G1 X88.623 Y41.337 E.61194
G1 X88.623 Y43.75 E.07566
G1 X88.722 Y44.696 E.02982
G1 X88.994 Y45.564 E.02852
G1 X89.42 Y46.344 E.02787
G1 X89.999 Y47.035 E.02827
G1 X90.707 Y47.597 E.02834
G1 X91.517 Y48.003 E.02841
G1 X92.392 Y48.231 E.02835
G1 X93.18 Y48.278 E.02475
G1 X94.163 Y48.165 E.03102
G1 X94.916 Y47.933 E.0247
G1 X95.155 Y47.813 E.00839
G1 X95.823 Y47.415 E.02438
G1 X96.397 Y46.875 E.02471
G1 X96.684 Y46.465 E.01569
G1 X96.971 Y45.999 E.01716
G1 X97.274 Y45.146 E.02838
G1 X97.395 Y44.303 E.0267
G1 X97.435 Y43.108 E.03749
G1 X97.442 Y41.337 E.05553
G1 X190.223 Y41.337 E2.90908
G1 X190.223 Y43.75 E.07566
M73 Q1 S87
G1 X190.322 Y44.696 E.02982
G1 X190.589 Y45.554 E.02817
G1 X191.02 Y46.344 E.02822
G1 X191.598 Y47.034 E.02822
G1 X192.21 Y47.533 E.02476
G1 X192.42 Y47.656 E.00763
G1 X193.117 Y48.003 E.02441
G1 X193.717 Y48.168 E.01951
G1 X194.114 Y48.238 E.01264
G1 X194.877 Y48.275 E.02395
G1 X195.66 Y48.186 E.02471
G1 X196.104 Y48.06 E.01447
G1 X196.629 Y47.884 E.01736
G1 X197.315 Y47.495 E.02473
G1 X197.659 Y47.193 E.01435
G1 X198.098 Y46.749 E.01958
G1 X198.571 Y45.999 E.0278
G1 X198.874 Y45.146 E.02838
G1 X198.995 Y44.303 E.0267
G1 X199.035 Y43.108 E.03749
G1 X199.042 Y41.337 E.05553
G1 X206.347 Y41.337 E.22904
G1 X206.347 Y168.663 E3.99221
G1 X199.042 Y168.663 E.22904
G1 X199.035 Y166.892 E.05553
G1 X198.995 Y165.697 E.03749
G1 X198.845 Y164.74 E.03037
G1 X198.571 Y164.001 E.02471
G1 X198.318 Y163.588 E.01519
G1 X197.997 Y163.125 E.01766
G1 X197.315 Y162.505 E.0289
G1 X196.516 Y162.067 E.02857
G1 X195.66 Y161.814 E.02799
G1 X194.877 Y161.725 E.02471
G1 X193.877 Y161.788 E.03142
G1 X193.006 Y162.04 E.02843
G1 X192.21 Y162.467 E.02832
G1 X191.518 Y163.045 E.02827
G1 X190.958 Y163.749 E.02821
G1 X190.589 Y164.446 E.02473
G1 X190.301 Y165.412 E.03161
G1 X190.223 Y166.25 E.02639
G1 X190.223 Y168.663 E.07566
G1 X97.442 Y168.663 E2.90908
G1 X97.435 Y166.892 E.05553
G1 X97.389 Y165.633 E.0395
G1 X97.245 Y164.74 E.02836
G1 X96.973 Y164.006 E.02454
G1 X96.757 Y163.647 E.01314
G1 X96.397 Y163.125 E.01988
G1 X95.82 Y162.582 E.02484
G1 X95.376 Y162.313 E.01628
G1 X94.916 Y162.067 E.01636
G1 X94.163 Y161.835 E.0247
G1 X93.18 Y161.722 E.03102
G1 X92.394 Y161.769 E.02469
G1 X91.408 Y162.039 E.03205
G1 X90.707 Y162.403 E.02477
G1 X90.327 Y162.697 E.01506
G1 X89.921 Y163.043 E.01673
G1 X89.42 Y163.656 E.02482
G1 X88.947 Y164.549 E.03168
G1 X88.701 Y165.412 E.02814
G1 X88.623 Y166.25 E.02639
G1 X88.623 Y168.663 E.07566
G1 X68.677 Y168.663 E.62539
G1 X68.666 Y168.193 E.01474
M204 S1000
G1 X68.3 Y168.229 F10800
M204 S800
;TYPE:External perimeter
G1 F1200
G1 X68.233 Y168.085 E.00498
G1 X68.112 Y168.04 E.00405
G1 X65.069 Y168.04 E.09541
G1 X64.96 Y168.074 E.00358
G1 X64.88 Y168.229 E.00547
G1 X64.88 Y169.04 E.02543
G1 X60.8 Y169.04 E.12793
G1 X60.378 Y169.004 E.01328
G1 X59.954 Y168.821 E.01448
G1 X59.603 Y168.521 E.01448
G1 X59.385 Y168.114 E.01448
G1 X59.295 Y167.647 E.01491
G1 X59.225 Y165.501 E.06732
G1 X59.162 Y164.96 E.01708
G1 X59.013 Y164.31 E.02091
G1 X58.749 Y163.695 E.02098
G1 X58.439 Y163.254 E.0169
G1 X57.959 Y162.793 E.02087
G1 X57.39 Y162.484 E.0203
G1 X56.87 Y162.301 E.01728
G1 X55.677 Y162.172 E.03762
G1 X53.843 Y162.123 E.05752
G1 X52.005 Y162.106 E.05763
G1 X44.761 Y162.096 E.22713
G1 X44.357 Y162.059 E.01272
G1 X43.932 Y161.874 E.01453
G1 X43.581 Y161.571 E.01454
G1 X43.364 Y161.161 E.01454
G1 X43.276 Y160.694 E.0149
G1 X43.276 Y156.516 E.131
G1 X44.088 Y156.516 E.02546
M73 C81
G1 X44.223 Y156.459 E.00459
G1 X44.276 Y156.327 E.00446
G1 X44.276 Y153.284 E.09541
G1 X44.215 Y153.145 E.00476
G1 X44.088 Y153.096 E.00427
G1 X43.276 Y153.096 E.02546
G1 X43.276 Y150.516 E.08089
G1 X44.088 Y150.516 E.02546
G1 X44.215 Y150.466 E.00428
G1 X44.276 Y150.327 E.00476
G1 X44.276 Y147.284 E.09541
G1 X44.218 Y147.148 E.00464
G1 X44.088 Y147.096 E.00439
G1 X43.276 Y147.096 E.02546
G1 X43.276 Y144.516 E.08089
G1 X44.088 Y144.516 E.02546
G1 X44.218 Y144.464 E.00439
G1 X44.276 Y144.327 E.00466
G1 X44.276 Y141.284 E.09541
G1 X44.24 Y141.173 E.00366
G1 X44.088 Y141.096 E.00534
G1 X43.276 Y141.096 E.02546
G1 X43.276 Y138.516 E.08089
G1 X44.088 Y138.516 E.02546
G1 X44.213 Y138.469 E.00419
G1 X44.276 Y138.327 E.00487
G1 X44.276 Y135.284 E.09541
G1 X44.218 Y135.148 E.00464
G1 X44.088 Y135.096 E.00439
G1 X43.276 Y135.096 E.02546
G1 X43.276 Y132.516 E.08089
G1 X44.088 Y132.516 E.02546
G1 X44.218 Y132.463 E.0044
G1 X44.276 Y132.327 E.00464
G1 X44.276 Y129.439 E.09055
G1 X44.247 Y129.182 E.00811
G1 X44.088 Y129.096 E.00567
G1 X43.276 Y129.096 E.02546
G1 X43.276 Y94.95 E1.07062
G1 X68.534 Y94.95 E.79195
G1 X68.667 Y94.901 E.00444
G1 X68.729 Y94.762 E.00477
G1 X68.729 Y40.96 E1.68692
G1 X89 Y40.96 E.63558
M73 Q2 S87
G1 X89 Y43.75 E.08748
M73 P2 R87
G1 X89.083 Y44.588 E.0264
G1 X89.327 Y45.387 E.02619
G1 X89.712 Y46.106 E.02557
G1 X90.237 Y46.743 E.02588
G1 X90.88 Y47.262 E.02591
G1 X91.617 Y47.64 E.02597
G1 X92.415 Y47.855 E.02591
G1 X93.202 Y47.901 E.02472
G1 X94.052 Y47.804 E.02682
G1 X94.805 Y47.573 E.0247
G1 X95.565 Y47.14 E.02743
G1 X96.168 Y46.566 E.0261
G1 X96.617 Y45.868 E.02602
G1 X96.901 Y45.091 E.02594
G1 X97.018 Y44.29 E.02538
G1 X97.058 Y43.107 E.03711
G1 X97.067 Y40.96 E.06732
G1 X190.6 Y40.96 E2.93266
G1 X190.6 Y43.75 E.08748
M73 D81
G1 X190.683 Y44.588 E.0264
G1 X190.922 Y45.378 E.02588
G1 X191.312 Y46.106 E.02589
G1 X191.837 Y46.743 E.02588
G1 X192.448 Y47.241 E.02471
G1 X193.217 Y47.64 E.02716
G1 X194.136 Y47.862 E.02964
G1 X194.835 Y47.9 E.02195
G1 X195.652 Y47.804 E.02579
G1 X196.443 Y47.556 E.02599
G1 X197.128 Y47.167 E.0247
G1 X197.782 Y46.543 E.02834
G1 X198.217 Y45.868 E.02518
G1 X198.501 Y45.091 E.02594
G1 X198.618 Y44.29 E.02538
G1 X198.658 Y43.107 E.03711
G1 X198.667 Y40.96 E.06732
G1 X206.724 Y40.96 E.25262
G1 X206.724 Y169.04 E4.01585
G1 X198.667 Y169.04 E.25262
M73 P2 R86
G1 X198.658 Y166.893 E.06732
G1 X198.618 Y165.71 E.03711
G1 X198.491 Y164.871 E.02661
G1 X198.198 Y164.094 E.02604
G1 X197.739 Y163.4 E.02609
G1 X197.128 Y162.833 E.02614
G1 X196.405 Y162.427 E.026
G1 X195.537 Y162.18 E.0283
G1 X194.802 Y162.099 E.02318
G1 X193.977 Y162.152 E.02592
G1 X193.18 Y162.375 E.02595
G1 X192.448 Y162.759 E.02592
G1 X191.81 Y163.284 E.02591
G1 X191.291 Y163.925 E.02586
G1 X190.922 Y164.622 E.02473
G1 X190.676 Y165.448 E.02702
G1 X190.6 Y166.25 E.02526
G1 X190.6 Y169.04 E.08748
G1 X97.067 Y169.04 E2.93266
G1 X97.058 Y166.893 E.06732
G1 X97.016 Y165.689 E.03777
G1 X96.891 Y164.871 E.02595
G1 X96.619 Y164.137 E.02454
G1 X96.139 Y163.4 E.02758
G1 X95.565 Y162.86 E.02471
G1 X94.757 Y162.413 E.02895
G1 X94.018 Y162.189 E.02421
G1 X93.398 Y162.118 E.01957
G1 X92.743 Y162.126 E.02054
G1 X92.247 Y162.187 E.01567
G1 X91.58 Y162.375 E.02173
G1 X90.806 Y162.793 E.02758
G1 X90.21 Y163.284 E.02421
G1 X89.672 Y163.962 E.02714
G1 X89.308 Y164.656 E.02457
G1 X89.076 Y165.448 E.02588
G1 X89 Y166.25 E.02526
G1 X89 Y169.04 E.08748
G1 X68.3 Y169.04 E.64903
G1 X68.3 Y168.289 E.02355
M204 S1000
G1 X68.339 Y168.075 F10800
;WIPE_START
G1 F8640
G1 X68.233 Y168.085 E-.04958
G1 X68.112 Y168.04 E-.02981
G1 X65.069 Y168.04 E-.70264
G1 X64.995 Y168.063 E-.01797
;WIPE_END
G1 Z.6 F720
G1 X194.384 Y62.645 F10800
G1 Z.2 F720
G1 E.8 F2100
M204 S800
;TYPE:Perimeter
G1 F1200
G1 X193.581 Y62.025 E.03181
G1 X192.873 Y61.21 E.03385
G1 X192.339 Y60.271 E.03387
G1 X192 Y59.245 E.03388
G1 X191.869 Y58.173 E.03386
G1 X191.951 Y57.096 E.03387
G1 X192.243 Y56.057 E.03384
G1 X192.735 Y55.095 E.03388
G1 X193.405 Y54.248 E.03386
G1 X194.23 Y53.55 E.03388
G1 X195.069 Y53.085 E.03008
G1 X195.341 Y52.965 E.00932
G1 X196.21 Y52.7 E.02849
G1 X197.158 Y52.587 E.02993
G1 X198.089 Y52.635 E.02923
G1 X199.242 Y52.927 E.03729
G1 X200.116 Y53.344 E.03036
G1 X200.987 Y53.983 E.03387
G1 X201.715 Y54.781 E.03387
G1 X202.273 Y55.706 E.03387
G1 X202.637 Y56.723 E.03387
G1 X202.794 Y57.791 E.03385
G1 X202.739 Y58.87 E.03388
G1 X202.472 Y59.917 E.03388
G1 X202.005 Y60.89 E.03384
G1 X201.355 Y61.753 E.03388
G1 X200.457 Y62.536 E.03736
G1 X199.616 Y63.017 E.03038
G1 X198.486 Y63.394 E.03735
G1 X197.524 Y63.513 E.03039
G1 X196.447 Y63.444 E.03384
G1 X195.404 Y63.165 E.03385
G1 X194.432 Y62.682 E.03403
M204 S1000
G1 X194.607 Y62.349 F10800
M204 S800
;TYPE:External perimeter
G1 F1200
G1 X193.815 Y61.729 E.03154
G1 X193.16 Y60.965 E.03155
G1 X192.668 Y60.088 E.03153
G1 X192.359 Y59.131 E.03153
G1 X192.243 Y58.132 E.03153
G1 X192.327 Y57.129 E.03156
G1 X192.605 Y56.163 E.03152
G1 X193.069 Y55.27 E.03155
G1 X193.699 Y54.486 E.03153
G1 X194.47 Y53.84 E.03154
G1 X195.248 Y53.417 E.02777
G1 X196.347 Y53.055 E.03628
G1 X197.106 Y52.964 E.02397
G1 X198.105 Y53.017 E.03137
G1 X199.044 Y53.255 E.03037
G1 X199.986 Y53.704 E.03272
G1 X200.761 Y54.285 E.03037
G1 X201.434 Y55.032 E.03153
G1 X201.948 Y55.897 E.03155
G1 X202.281 Y56.846 E.03153
G1 X202.421 Y57.842 E.03154
G1 X202.362 Y58.847 E.03157
G1 X202.107 Y59.82 E.03154
G1 X201.666 Y60.724 E.03154
G1 X201.056 Y61.523 E.03152
G1 X200.27 Y62.209 E.03271
G1 X199.429 Y62.69 E.03038
G1 X198.9 Y62.87 E.01752
G1 X198.321 Y63.034 E.01887
G1 X197.478 Y63.139 E.02664
G1 X196.475 Y63.068 E.03153
G1 X195.505 Y62.801 E.03154
G1 X194.661 Y62.376 E.02963
M204 S1000
G1 X194.253 Y62.535 F10800
;WIPE_START
G1 F8640
G1 X193.815 Y61.729 E-.24592
G1 X193.16 Y60.965 E-.23237
G1 X192.668 Y60.088 E-.23219
G1 X192.549 Y59.719 E-.08952
;WIPE_END
G1 Z.6 F720
G1 X189.046 Y56.788 F10800
G1 Z.2 F720
G1 E.8 F2100
M204 S800
;TYPE:Perimeter
G1 F1200
G1 X189.194 Y57.791 E.03179
G1 X189.138 Y58.87 E.03388
G1 X188.872 Y59.917 E.03387
G1 X188.404 Y60.89 E.03385
G1 X187.755 Y61.753 E.03386
G1 X186.857 Y62.536 E.03736
G1 X186.016 Y63.017 E.03038
G1 X184.886 Y63.394 E.03735
G1 X183.923 Y63.513 E.03042
G1 X182.847 Y63.444 E.03381
G1 X181.803 Y63.165 E.03388
G1 X180.836 Y62.685 E.03385
G1 X179.981 Y62.025 E.03387
G1 X179.273 Y61.21 E.03385
