; generated by PrusaSlicer 2.6.0+MacOS-arm64 on 2023-08-09 at 11:13:18 UTC


;
;
; 

; external perimeters extrusion width = 0.45mm
; perimeters extrusion width = 0.45mm
; infill extrusion width = 0.45mm
; solid infill extrusion width = 0.45mm
; top infill extrusion width = 0.40mm
; first layer extrusion width = 0.42mm

; external perimeters extrusion width = 0.45mm
; perimeters extrusion width = 0.45mm
; infill extrusion width = 0.45mm
; solid infill extrusion width = 0.45mm
; top infill extrusion width = 0.40mm
; first layer extrusion width = 0.42mm

M73 P0 R146
M73 C133
M73 Q0 S146
M73 D133
M201 X1000 Y1000 Z200 E5000 ; sets maximum accelerations, mm/sec^2
M203 X200 Y200 Z12 E120 ; sets maximum feedrates, mm / sec
M204 S1250 T1250 ; sets acceleration (S) and retract acceleration (R), mm/sec^2
M205 X8.00 Y8.00 Z0.40 E4.50 ; sets the jerk limits, mm/sec
M205 S0 T0 ; sets the minimum extruding and travel feed rate, mm/sec
;TYPE:Custom
M862.3 P "MK3S" ; printer model check
M862.1 P0.4 ; nozzle diameter check
M115 U3.12.2 ; tell printer latest fw version
G90 ; use absolute coordinates
M83 ; extruder relative mode
M104 S215 ; set extruder temp
M140 S60 ; set bed temp
M190 S60 ; wait for bed temp
M109 S215 ; wait for extruder temp
G28 W ; home all without mesh bed level
G80 ; mesh bed leveling

G1 Z0.2 F720
G1 Y-3 F1000 ; go outside print area
G92 E0
G1 X60 E9 F1000 ; intro line
G1 X100 E12.5 F1000 ; intro line

G92 E0
M221 S95

; Don't change E values below. Excessive value can damage the printer.
M907 E430 ; set extruder motor current
G21 ; set units to millimeters
G90 ; use absolute coordinates
M83 ; use relative distances for extrusion
M900 K0.05 ; Filament gcode LA 1.5
M900 K30 ; Filament gcode LA 1.0
M107
;LAYER_CHANGE
;Z:0.2
;HEIGHT:0.2
;BEFORE_LAYER_CHANGE
G92 E0.0
;0.2


G1 E-.8 F2100
G1 Z.4 F720
;AFTER_LAYER_CHANGE
;0.2
G1 X12.121 Y38.329 F10800
G1 Z.2 F720
G1 E.8 F2100
M204 S800
;TYPE:Skirt/Brim
;WIDTH:0.42
G1 F1200
G1 X13.416 Y38.005 E.04186
G1 X236.584 Y38.005 E6.99728
G1 X238.001 Y38.398 E.04611
M73 C132
G1 X239.014 Y39.464 E.04611
G1 X239.338 Y40.759 E.04186
G1 X239.338 Y169.241 E4.02846
G1 X238.945 Y170.658 E.04611
M73 P0 R145
G1 X237.879 Y171.671 E.04611
G1 X236.584 Y171.995 E.04186
G1 X25.852 Y171.995 E6.60735
G1 X25.105 Y171.92 E.02354
M73 D132
G1 X23.846 Y171.49 E.04171
G1 X12.909 Y165.881 E.38539
G1 X12.179 Y165.377 E.02781
G1 X11.671 Y164.869 E.02253
G1 X11.073 Y163.936 E.03475
G1 X10.737 Y162.879 E.03478
G1 X10.662 Y162.132 E.02354
G1 X10.662 Y40.759 E3.80557
G1 X11.055 Y39.342 E.04611
G1 X12.078 Y38.37 E.04425
M204 S1000
G1 X12.344 Y38.687 F10800
M204 S800
G1 F1200
G1 X12.477 Y38.576 E.00543
G1 X13.416 Y38.382 E.03006
G1 X236.584 Y38.382 E6.99728
G1 X237.891 Y38.774 E.04278
M73 Q0 S145
G1 X238.767 Y39.819 E.04275
G1 X238.961 Y40.759 E.03009
G1 X238.961 Y169.241 E4.02846
G1 X238.569 Y170.548 E.04278
G1 X237.523 Y171.424 E.04278
G1 X236.584 Y171.618 E.03006
G1 X25.852 Y171.618 E6.60735
G1 X25.154 Y171.546 E.022
G1 X24.018 Y171.155 E.03767
G1 X13.082 Y165.546 E.38536
G1 X12.409 Y165.078 E.0257
G1 X11.97 Y164.639 E.01947
G1 X11.421 Y163.791 E.03167
G1 X11.111 Y162.83 E.03166
G1 X11.039 Y162.132 E.022
G1 X11.039 Y40.759 E3.80557
G1 X11.431 Y39.452 E.04278
M73 C131
G1 X12.298 Y38.726 E.03546
M204 S1000
; printing object MAVIS Who Needs A Sequencer.stl id:0 copy 0
;WIPE_START
G1 F8640
G1 X12.477 Y38.576 E-.05393
G1 X13.416 Y38.382 E-.2214
G1 X15.688 Y38.382 E-.52467
;WIPE_END
G1 Z.6 F720
G1 X39.014 Y168.15 F10800
G1 Z.2 F720
M73 P0 R144
G1 E.8 F2100
M204 S800
;TYPE:Perimeter
;WIDTH:0.419999
G1 F1200
G1 X38.986 Y168.009 E.00451
G1 X38.875 Y167.833 E.00652
G1 X38.715 Y167.714 E.00625
G1 X38.462 Y167.654 E.00815
G1 X35.314 Y167.664 E.0987
G1 X35.122 Y167.738 E.00645
G1 X34.936 Y167.924 E.00825
G1 X34.853 Y168.219 E.00961
G1 X34.853 Y168.654 E.01364
G1 X25.891 Y168.654 E.281
G1 X25.508 Y168.572 E.01228
G1 X25.211 Y168.383 E.01104
G1 X25.021 Y168.085 E.01108
G1 X24.94 Y167.702 E.01227
G1 X24.939 Y166.179 E.04775
G1 X24.905 Y165.741 E.01377
G1 X24.8 Y165.275 E.01498
G1 X24.586 Y164.75 E.01778
G1 X24.221 Y164.209 E.02046
G1 X23.726 Y163.719 E.02184
G1 X23.327 Y163.455 E.015
G1 X22.894 Y163.254 E.01497
G1 X22.437 Y163.119 E.01494
G1 X21.895 Y163.049 E.01714
G1 X14.955 Y163.045 E.2176
G1 X14.572 Y162.963 E.01228
G1 X14.274 Y162.774 E.01106
G1 X14.085 Y162.476 E.01106
G1 X14.003 Y162.093 E.01228
G1 X14.003 Y156.884 E.16332
G1 X14.438 Y156.884 E.01364
G1 X14.715 Y156.811 E.00898
G1 X14.839 Y156.717 E.00488
G1 X14.989 Y156.446 E.00971
G1 X15.003 Y156.318 E.00404
G1 X15.003 Y153.695 E.08224
G1 X14.978 Y153.107 E.01845
G1 X14.85 Y152.888 E.00795
G1 X14.648 Y152.75 E.00767
G1 X14.438 Y152.709 E.00671
G1 X14.003 Y152.709 E.01364
G1 X14.003 Y150.884 E.05722
G1 X14.438 Y150.884 E.01364
G1 X14.648 Y150.843 E.00671
G1 X14.772 Y150.774 E.00445
G1 X14.923 Y150.609 E.00701
G1 X15.003 Y150.318 E.00946
G1 X15.003 Y148.131 E.06857
G1 X14.988 Y147.143 E.03098
G1 X14.878 Y146.92 E.0078
G1 X14.648 Y146.75 E.00897
G1 X14.438 Y146.709 E.00671
G1 X14.003 Y146.709 E.01364
G1 X14.003 Y144.884 E.05722
G1 X14.438 Y144.884 E.01364
G1 X14.648 Y144.843 E.00671
G1 X14.796 Y144.755 E.0054
G1 X14.947 Y144.564 E.00763
G1 X15.003 Y144.318 E.00791
G1 X14.992 Y141.162 E.09895
G1 X14.841 Y140.879 E.01006
G1 X14.648 Y140.75 E.00728
G1 X14.438 Y140.709 E.00671
G1 X14.003 Y140.709 E.01364
G1 X14.003 Y138.884 E.05722
G1 X14.438 Y138.884 E.01364
G1 X14.648 Y138.843 E.00671
G1 X14.765 Y138.779 E.00418
G1 X14.914 Y138.623 E.00676
G1 X15.003 Y138.318 E.00996
G1 X15.003 Y135.856 E.07719
G1 X14.974 Y135.096 E.02385
G1 X14.865 Y134.905 E.0069
G1 X14.648 Y134.75 E.00836
G1 X14.438 Y134.709 E.00671
G1 X14.003 Y134.709 E.01364
G1 X14.003 Y132.884 E.05722
G1 X14.438 Y132.884 E.01364
G1 X14.648 Y132.843 E.00671
G1 X14.785 Y132.764 E.00496
G1 X14.939 Y132.581 E.0075
G1 X15.003 Y132.318 E.00849
G1 X15.003 Y130.086 E.06998
G1 X14.983 Y129.124 E.03017
G1 X14.821 Y128.859 E.00974
G1 X14.438 Y128.709 E.0129
G1 X14.003 Y128.709 E.01364
G1 X14.003 Y41.346 E2.7392
G1 X16.781 Y41.346 E.0871
M73 P1 R144
M73 Q1 S145
G1 X16.782 Y43.886 E.07964
G1 X16.828 Y44.338 E.01425
G1 X16.945 Y44.803 E.01503
G1 X17.132 Y45.245 E.01505
G1 X17.385 Y45.654 E.01508
G1 X17.697 Y46.018 E.01503
G1 X18.061 Y46.331 E.01505
G1 X18.467 Y46.585 E.01502
G1 X18.906 Y46.775 E.015
G1 X19.395 Y46.904 E.01586
G1 X19.896 Y46.954 E.01579
G1 X21.764 Y46.954 E.05857
G1 X22.3 Y46.912 E.01686
G1 X22.776 Y46.797 E.01535
G1 X23.251 Y46.599 E.01614
G1 X23.686 Y46.327 E.01609
G1 X24.076 Y45.984 E.01628
G1 X24.456 Y45.504 E.0192
G1 X24.775 Y44.888 E.02175
G1 X24.909 Y44.426 E.01508
G1 X24.973 Y43.886 E.01705
G1 X24.975 Y41.346 E.07964
G1 X225.062 Y41.346 E6.27358
G1 X225.067 Y43.949 E.08162
M73 D131
G1 X225.132 Y44.428 E.01516
G1 X225.271 Y44.897 E.01534
G1 X225.483 Y45.339 E.01537
G1 X225.761 Y45.743 E.01538
G1 X226.098 Y46.098 E.01535
G1 X226.485 Y46.396 E.01531
G1 X226.913 Y46.631 E.01531
G1 X227.217 Y46.744 E.01017
G1 X227.847 Y46.894 E.02031
G1 X228.351 Y46.92 E.01582
G1 X229.946 Y46.92 E.05001
G1 X230.368 Y46.904 E.01324
G1 X230.844 Y46.821 E.01515
G1 X231.307 Y46.665 E.01532
G1 X231.741 Y46.439 E.01534
G1 X232.134 Y46.149 E.01531
G1 X232.477 Y45.803 E.01528
G1 X232.764 Y45.411 E.01523
G1 X232.989 Y44.98 E.01524
G1 X233.148 Y44.521 E.01523
G1 X233.243 Y43.959 E.01787
G1 X233.273 Y42.346 E.05058
G1 X233.262 Y41.346 E.03136
G1 X235.997 Y41.346 E.08575
G1 X235.997 Y168.654 E3.99165
G1 X212.899 Y168.654 E.72422
G1 X212.898 Y166.114 E.07964
G1 X212.852 Y165.662 E.01425
G1 X212.735 Y165.197 E.01503
G1 X212.548 Y164.755 E.01505
G1 X212.295 Y164.346 E.01508
G1 X211.983 Y163.982 E.01503
G1 X211.619 Y163.669 E.01505
G1 X211.195 Y163.404 E.01568
G1 X210.705 Y163.201 E.01663
G1 X210.214 Y163.087 E.0158
G1 X209.578 Y163.045 E.01998
G1 X208.198 Y163.045 E.04327
G1 X207.38 Y163.088 E.02568
G1 X207.009 Y163.176 E.01196
G1 X206.532 Y163.355 E.01597
G1 X206.063 Y163.624 E.01695
G1 X205.693 Y163.926 E.01497
G1 X205.381 Y164.269 E.01454
G1 X205.107 Y164.678 E.01544
G1 X204.905 Y165.112 E.01501
G1 X204.771 Y165.574 E.01508
G1 X204.707 Y166.114 E.01705
G1 X204.705 Y168.654 E.07964
G1 X45.027 Y168.654 E5.00658
G1 X45.027 Y168.219 E.01364
M73 Q1 S144
G1 X44.949 Y167.932 E.00933
G1 X44.743 Y167.729 E.00907
G1 X44.462 Y167.654 E.00912
G1 X41.324 Y167.662 E.09839
G1 X41.1 Y167.752 E.00757
G1 X40.894 Y168.009 E.01033
G1 X40.853 Y168.219 E.00671
G1 X40.853 Y168.654 E.01364
G1 X39.027 Y168.654 E.05725
G1 X39.025 Y168.208 E.01398
M204 S1000
G1 X38.65 Y168.219 F10800
M204 S800
;TYPE:External perimeter
G1 F1200
G1 X38.599 Y168.091 E.00432
G1 X38.462 Y168.031 E.00469
G1 X35.419 Y168.031 E.09541
G1 X35.315 Y168.062 E.0034
G1 X35.23 Y168.219 E.0056
G1 X35.23 Y169.031 E.02546
G1 X25.958 Y169.031 E.29072
G1 X25.519 Y168.985 E.01384
G1 X25.208 Y168.856 E.01056
G1 X24.942 Y168.652 E.01051
G1 X24.737 Y168.385 E.01055
G1 X24.608 Y168.074 E.01056
G1 X24.562 Y167.727 E.01098
G1 X24.562 Y166.179 E.04854
G1 X24.529 Y165.773 E.01277
G1 X24.433 Y165.362 E.01323
G1 X24.263 Y164.945 E.01412
G1 X23.932 Y164.451 E.01864
G1 X23.477 Y164.002 E.02004
G1 X23.123 Y163.772 E.01324
G1 X22.74 Y163.598 E.01319
G1 X22.335 Y163.483 E.0132
G1 X21.895 Y163.426 E.01391
G1 X15.021 Y163.422 E.21553
G1 X14.583 Y163.376 E.01381
G1 X14.272 Y163.247 E.01056
G1 X14.006 Y163.043 E.01051
G1 X13.801 Y162.776 E.01055
G1 X13.672 Y162.465 E.01056
G1 X13.626 Y162.118 E.01098
G1 X13.626 Y156.506 E.17596
G1 X14.438 Y156.506 E.02546
G1 X14.571 Y156.451 E.00451
G1 X14.626 Y156.318 E.00451
G1 X14.626 Y153.275 E.09541
G1 X14.575 Y153.146 E.00435
G1 X14.438 Y153.086 E.00469
G1 X13.626 Y153.086 E.02546
G1 X13.626 Y150.506 E.08089
G1 X14.438 Y150.506 E.02546
G1 X14.575 Y150.447 E.00468
G1 X14.626 Y150.318 E.00435
G1 X14.626 Y147.275 E.09541
G1 X14.585 Y147.156 E.00395
G1 X14.438 Y147.086 E.0051
G1 X13.626 Y147.086 E.02546
G1 X13.626 Y144.506 E.08089
G1 X14.438 Y144.506 E.02546
G1 X14.557 Y144.464 E.00396
G1 X14.626 Y144.318 E.00506
G1 X14.626 Y141.275 E.09541
G1 X14.572 Y141.143 E.00447
G1 X14.438 Y141.086 E.00457
G1 X13.626 Y141.086 E.02546
G1 X13.626 Y138.506 E.08089
G1 X14.438 Y138.506 E.02546
G1 X14.572 Y138.45 E.00455
G1 X14.626 Y138.318 E.00447
G1 X14.626 Y135.275 E.09541
G1 X14.58 Y135.152 E.00412
G1 X14.438 Y135.086 E.00491
G1 X13.626 Y135.086 E.02546
G1 X13.626 Y132.506 E.08089
G1 X14.438 Y132.506 E.02546
G1 X14.554 Y132.467 E.00384
G1 X14.626 Y132.318 E.00519
G1 X14.626 Y129.275 E.09541
G1 X14.579 Y129.15 E.00419
G1 X14.438 Y129.086 E.00486
G1 X13.626 Y129.086 E.02546
G1 X13.626 Y40.969 E2.76284
G1 X17.158 Y40.969 E.11074
G1 X17.159 Y43.886 E.09146
G1 X17.203 Y44.297 E.01296
G1 X17.309 Y44.706 E.01325
G1 X17.477 Y45.093 E.01323
G1 X17.703 Y45.451 E.01327
G1 X17.98 Y45.769 E.01322
G1 X18.303 Y46.042 E.01326
G1 X18.662 Y46.263 E.01322
G1 X19.051 Y46.427 E.01324
G1 X19.459 Y46.532 E.01321
G1 X19.896 Y46.577 E.01377
G1 X21.629 Y46.577 E.05434
G1 X22.262 Y46.537 E.01989
G1 X22.671 Y46.435 E.01322
G1 X23.06 Y46.273 E.01321
G1 X23.338 Y46.105 E.01018
G1 X23.793 Y45.734 E.01841
G1 X24.139 Y45.3 E.0174
G1 X24.431 Y44.733 E.02
G1 X24.545 Y44.327 E.01322
G1 X24.596 Y43.886 E.01392
G1 X24.598 Y40.969 E.09146
G1 X225.438 Y40.969 E6.29719
G1 X225.444 Y43.949 E.09344
M73 C130
G1 X225.505 Y44.373 E.01343
G1 X225.631 Y44.785 E.01351
G1 X225.821 Y45.172 E.01352
G1 X226.068 Y45.524 E.01348
G1 X226.368 Y45.834 E.01353
G1 X226.735 Y46.109 E.01438
G1 X227.341 Y46.388 E.02092
G1 X227.917 Y46.523 E.01855
G1 X228.351 Y46.543 E.01362
G1 X229.946 Y46.543 E.05001
G1 X230.353 Y46.527 E.01277
G1 X230.775 Y46.451 E.01344
G1 X231.182 Y46.309 E.01352
G1 X231.562 Y46.107 E.01349
G1 X231.906 Y45.848 E.0135
G1 X232.206 Y45.541 E.01346
G1 X232.457 Y45.192 E.01348
G1 X232.653 Y44.81 E.01346
G1 X232.789 Y44.403 E.01345
G1 X232.866 Y43.952 E.01435
G1 X232.896 Y42.351 E.05021
G1 X232.88 Y40.969 E.04333
G1 X236.374 Y40.969 E.10955
G1 X236.374 Y169.031 E4.01529
G1 X212.522 Y169.031 E.74786
M73 P1 R143
G1 X212.521 Y166.114 E.09146
G1 X212.477 Y165.703 E.01296
G1 X212.371 Y165.294 E.01325
G1 X212.203 Y164.907 E.01323
G1 X211.977 Y164.549 E.01327
G1 X211.7 Y164.231 E.01322
G1 X211.377 Y163.958 E.01326
G1 X211.018 Y163.737 E.01322
G1 X210.629 Y163.573 E.01324
G1 X210.188 Y163.463 E.01425
G1 X209.578 Y163.422 E.01917
G1 X208.198 Y163.422 E.04327
G1 X207.418 Y163.463 E.02449
G1 X207.102 Y163.542 E.01021
G1 X206.679 Y163.703 E.01419
G1 X206.259 Y163.945 E.0152
G1 X205.935 Y164.215 E.01322
G1 X205.664 Y164.518 E.01275
G1 X205.423 Y164.882 E.01369
G1 X205.249 Y165.267 E.01325
G1 X205.135 Y165.673 E.01322
G1 X205.084 Y166.114 E.01392
G1 X205.082 Y169.031 E.09146
G1 X44.65 Y169.031 E5.03022
G1 X44.65 Y168.219 E.02546
G1 X44.592 Y168.083 E.00464
G1 X44.462 Y168.031 E.00439
G1 X41.437 Y168.031 E.09485
G1 X41.281 Y168.091 E.00524
G1 X41.23 Y168.219 E.00432
G1 X41.23 Y169.031 E.02546
G1 X38.65 Y169.031 E.08089
G1 X38.65 Y168.279 E.02358
M204 S1000
G1 X38.701 Y168.091 F10800
;WIPE_START
G1 F8640
G1 X38.599 Y168.091 E-.04498
G1 X38.462 Y168.031 E-.03453
G1 X35.419 Y168.031 E-.70264
G1 X35.345 Y168.053 E-.01785
;WIPE_END
G1 Z.6 F720
G1 X213.358 Y58.274 F10800
G1 Z.2 F720
M73 D130
G1 E.8 F2100
M204 S800
;TYPE:Perimeter
G1 F1200
G1 X213.661 Y58.749 E.01767
G1 X213.831 Y59.357 E.01979
G1 X213.846 Y59.486 E.00407
G1 X213.852 Y62.844 E.10529
G1 X213.769 Y63.415 E.01809
G1 X213.506 Y64.002 E.02017
G1 X213.082 Y64.489 E.02025
G1 X212.536 Y64.832 E.02022
G1 X211.932 Y64.998 E.01964
G1 X207.49 Y65.018 E.13928
G1 X206.924 Y64.942 E.01791
G1 X206.336 Y64.69 E.02006
G1 X205.843 Y64.272 E.02027
G1 X205.5 Y63.734 E.02001
G1 X205.334 Y63.151 E.01901
G1 X205.311 Y62.831 E.01006
G1 X205.305 Y59.629 E.1004
G1 X205.381 Y59.091 E.01704
G1 X205.436 Y58.896 E.00635
G1 X205.671 Y58.421 E.01662
G1 X206.066 Y57.983 E.01849
G1 X206.62 Y57.638 E.02046
G1 X207.228 Y57.477 E.01972
G1 X207.351 Y57.463 E.00388
G1 X211.663 Y57.458 E.1352
G1 X212.228 Y57.533 E.01787
G1 X212.817 Y57.783 E.02006
G1 X213.326 Y58.223 E.0211
M204 S1000
G1 X213.056 Y58.478 F10800
M204 S800
;TYPE:External perimeter
G1 F1200
G1 X213.336 Y58.94 E.01694
G1 X213.469 Y59.486 E.01762
G1 X213.475 Y62.844 E.10529
G1 X213.397 Y63.356 E.01624
G1 X213.169 Y63.835 E.01663
G1 X212.807 Y64.231 E.01682
G1 X212.347 Y64.505 E.01679
G1 X211.846 Y64.631 E.0162
G1 X207.49 Y64.641 E.13658
G1 X206.978 Y64.569 E.01621
G1 X206.498 Y64.35 E.01654
G1 X206.098 Y63.994 E.01679
G1 X205.826 Y63.544 E.01649
G1 X205.693 Y63.028 E.01671
G1 X205.682 Y59.629 E.10657
G1 X205.759 Y59.115 E.0163
G1 X205.979 Y58.644 E.0163
G1 X206.341 Y58.24 E.01701
G1 X206.806 Y57.966 E.01692
G1 X207.352 Y57.84 E.01757
G1 X211.663 Y57.835 E.13517
G1 X212.175 Y57.906 E.01621
G1 X212.656 Y58.124 E.01656
G1 X213.011 Y58.439 E.01488
M204 S1000
G1 X213.451 Y58.41 F10800
;WIPE_START
G1 F8640
G1 X213.336 Y58.94 E-.13789
G1 X213.469 Y59.486 E-.12976
G1 X213.473 Y61.792 E-.53235
;WIPE_END
G1 Z.6 F720
G1 X190.62 Y58.466 F10800
G1 Z.2 F720
G1 E.8 F2100
M204 S800
;TYPE:Perimeter
G1 F1200
G1 X191.034 Y57.986 E.01987
G1 X191.587 Y57.64 E.02045
G1 X192.196 Y57.477 E.01977
G1 X192.32 Y57.463 E.00391
G1 X196.633 Y57.458 E.13523
G1 X197.198 Y57.532 E.01787
G1 X197.787 Y57.782 E.02006
G1 X198.281 Y58.198 E.02025
G1 X198.629 Y58.741 E.02022
G1 X198.794 Y59.323 E.01897
G1 X198.818 Y59.641 E.01
G1 X198.824 Y62.843 E.1004
G1 X198.75 Y63.376 E.01687
G1 X198.694 Y63.575 E.00648
G1 X198.461 Y64.05 E.01659
G1 X198.066 Y64.49 E.01854
G1 X197.513 Y64.836 E.02045
G1 X196.904 Y64.999 E.01977
G1 X192.468 Y65.018 E.13909
G1 X191.903 Y64.944 E.01787
G1 X191.314 Y64.694 E.02006
G1 X190.819 Y64.277 E.02029
G1 X190.468 Y63.728 E.02043
G1 X190.303 Y63.142 E.01909
G1 X190.283 Y62.83 E.0098
G1 X190.277 Y59.633 E.10024
G1 X190.353 Y59.085 E.01735
G1 X190.406 Y58.901 E.006
G1 X190.594 Y58.52 E.01332
M204 S1000
G1 X190.952 Y58.64 F10800
M204 S800
;TYPE:External perimeter
G1 F1200
G1 X191.31 Y58.243 E.01676
G1 X191.774 Y57.968 E.01691
G1 X192.32 Y57.84 E.01758
G1 X196.633 Y57.835 E.13523
G1 X197.145 Y57.906 E.01621
G1 X197.626 Y58.123 E.01655
G1 X198.027 Y58.477 E.01677
